;FLAVOR:Marlin
;TIME:1927
;Filament used: 3.79189m
;Layer height: 0.1
;MINX:67.2
;MINY:84.927
;MINZ:0.3
;MAXX:182.8
;MAXY:170.073
;MAXZ:6
;Generated with Cura_SteamEngine master
M140 S60
M105
M190 S60
M104 S200
M105
M109 S200
M82 ;absolute extrusion mode
G21 ;metric values
G90 ;absolute positioning
M82 ;set extruder to absolute mode
M107 ;start with the fan off
G28 X0 Y0 ;move X/Y to min endstops
M300 S1318 P266
G28 Z0 ;move Z to min endstops
G0 Z0.2
G92 E0 ;zero the extruded length
G1 X40 E25 F400 ; Extrude 25mm of filament in a 4cm line. Reduce speed (F) if you have a nozzle smaller than 0.4mm!
G92 E0 ;zero the extruded length again
G1 E-1 F500 ; Retract a little
G1 X80 F4000 ; Quickly wipe away from the filament line
M117 ; Printing…
G5
G92 E0
G92 E0
G1 F1500 E-6.5
;LAYER_COUNT:58
;LAYER:0
M107
M204 S5000
M205 X30 Y30
G0 F3600 X71.209 Y87.22 Z0.3
;TYPE:SKIRT
G1 F1500 E0
G1 F3600 X71.401 Y87.071 E0.01212
G1 X71.968 Y86.67 E0.04677
G1 X72.172 Y86.539 E0.05887
G1 X72.87 Y86.14 E0.09898
G1 X73.159 Y85.994 E0.11513
G1 X73.972 Y85.64 E0.15937
G1 X74.275 Y85.528 E0.17549
G1 X75.172 Y85.256 E0.22225
G1 X75.487 Y85.181 E0.23841
G1 X76.263 Y85.037 E0.27778
G1 X76.503 Y85.005 E0.28986
G1 X77.096 Y84.949 E0.31958
G1 X77.694 Y84.928 E0.34943
G1 X124.35 Y84.927 E2.67711
G1 X125.139 Y84.967 E2.71652
G1 X125.919 Y85.086 E2.75589
G1 X126.684 Y85.284 E2.79531
G1 X127.424 Y85.558 E2.83468
G1 X128.133 Y85.906 E2.87408
G1 X128.804 Y86.323 E2.9135
G1 X129.428 Y86.807 E2.95289
G1 X130.001 Y87.35 E2.99228
G1 X130.516 Y87.949 E3.03169
G1 X130.967 Y88.597 E3.07108
G1 X131.351 Y89.287 E3.11047
G1 X131.663 Y90.013 E3.1499
G1 X131.9 Y90.766 E3.18928
G1 X132.059 Y91.54 E3.2287
G1 X132.14 Y92.325 E3.26807
G1 X132.15 Y92.727 E3.28814
G1 X132.15 Y105.124 E3.90663
G1 X175 Y105.124 E6.04442
G1 X175.789 Y105.164 E6.08383
G1 X176.569 Y105.283 E6.1232
G1 X177.334 Y105.481 E6.16262
G1 X178.074 Y105.755 E6.20199
G1 X178.783 Y106.103 E6.24139
G1 X179.454 Y106.521 E6.28084
G1 X180.078 Y107.004 E6.3202
G1 X180.651 Y107.547 E6.35959
G1 X181.166 Y108.146 E6.399
G1 X181.617 Y108.794 E6.43839
G1 X182.001 Y109.485 E6.47783
G1 X182.313 Y110.21 E6.5172
G1 X182.55 Y110.963 E6.55659
G1 X182.709 Y111.737 E6.59601
G1 X182.79 Y112.522 E6.63538
G1 X182.8 Y112.924 E6.65544
G1 X182.799 Y159.658 E8.98701
G1 X182.774 Y160.278 E9.01797
G1 X182.75 Y160.579 E9.03303
G1 X182.635 Y161.429 E9.07583
G1 X182.578 Y161.726 E9.09091
G1 X182.383 Y162.519 E9.13166
G1 X182.296 Y162.806 E9.14662
G1 X182.022 Y163.565 E9.18688
G1 X181.935 Y163.772 E9.19808
G1 X181.624 Y164.425 E9.23416
G1 X181.483 Y164.689 E9.24909
G1 X181.173 Y165.219 E9.27973
G1 X181.093 Y165.344 E9.28713
G1 X180.784 Y165.791 E9.31424
G1 X180.651 Y165.97 E9.32537
G1 X180.148 Y166.579 E9.36477
G1 X179.947 Y166.799 E9.37964
G1 X179.417 Y167.327 E9.41697
G1 X179.252 Y167.476 E9.42806
G1 X178.71 Y167.923 E9.46311
G1 X178.533 Y168.056 E9.47415
G1 X178.049 Y168.392 E9.50355
G1 X177.866 Y168.509 E9.51438
G1 X177.142 Y168.919 E9.55589
G1 X176.879 Y169.05 E9.57055
G1 X176.067 Y169.398 E9.61463
G1 X175.792 Y169.498 E9.62923
G1 X174.911 Y169.761 E9.6751
G1 X174.626 Y169.828 E9.6897
G1 X173.879 Y169.966 E9.7276
G1 X173.663 Y169.995 E9.73847
G1 X173.058 Y170.052 E9.76879
G1 X172.481 Y170.072 E9.7976
G1 X77.61 Y170.073 E14.53073
G1 X76.912 Y170.042 E14.56559
G1 X76.589 Y170.013 E14.58177
G1 X75.725 Y169.886 E14.62533
G1 X75.495 Y169.839 E14.63705
G1 X74.726 Y169.641 E14.67666
G1 X74.429 Y169.548 E14.69219
G1 X73.663 Y169.263 E14.73297
G1 X73.448 Y169.17 E14.74465
G1 X72.713 Y168.805 E14.78559
G1 X72.44 Y168.651 E14.80123
G1 X71.671 Y168.156 E14.84686
G1 X71.415 Y167.969 E14.86267
G1 X70.785 Y167.456 E14.90321
G1 X70.608 Y167.296 E14.91511
G1 X70.038 Y166.724 E14.9554
G1 X69.825 Y166.487 E14.9713
G1 X69.359 Y165.917 E15.00803
G1 X69.216 Y165.724 E15.02001
G1 X68.761 Y165.036 E15.06116
G1 X68.598 Y164.759 E15.0772
G1 X68.196 Y163.98 E15.12093
G1 X68.064 Y163.684 E15.1371
G1 X67.779 Y162.945 E15.17662
G1 X67.703 Y162.714 E15.18875
G1 X67.526 Y162.089 E15.22116
G1 X67.472 Y161.863 E15.23275
G1 X67.355 Y161.278 E15.26251
G1 X67.315 Y161.027 E15.27519
G1 X67.23 Y160.229 E15.31523
G1 X67.2 Y159.473 E15.35298
G1 X67.201 Y95.447 E18.54725
G1 X67.23 Y94.78 E18.58056
G1 X67.258 Y94.454 E18.59688
G1 X67.384 Y93.572 E18.64133
G1 X67.446 Y93.266 E18.65691
G1 X67.668 Y92.42 E18.70054
G1 X67.768 Y92.11 E18.71679
G1 X68.058 Y91.348 E18.75747
G1 X68.162 Y91.113 E18.77029
G1 X68.472 Y90.49 E18.80501
G1 X68.59 Y90.277 E18.81716
G1 X68.933 Y89.716 E18.84996
G1 X69.069 Y89.513 E18.86215
G1 X69.539 Y88.882 E18.90141
G1 X69.745 Y88.633 E18.91753
G1 X70.398 Y87.936 E18.96518
G1 X70.634 Y87.713 E18.98138
G1 X71.209 Y87.22 E19.01917
G0 X71.454 Y87.536
G1 X71.646 Y87.387 E19.03129
G1 X72.184 Y87.006 E19.06418
G1 X72.388 Y86.875 E19.07628
G1 X73.05 Y86.497 E19.11431
G1 X73.339 Y86.351 E19.13046
G1 X74.11 Y86.015 E19.17242
G1 X74.413 Y85.903 E19.18854
G1 X75.265 Y85.645 E19.23295
G1 X75.58 Y85.57 E19.2491
G1 X76.316 Y85.434 E19.28645
G1 X76.556 Y85.402 E19.29853
G1 X77.118 Y85.349 E19.32669
G1 X77.694 Y85.328 E19.35544
G1 X124.35 Y85.327 E21.68312
G1 X125.118 Y85.367 E21.72149
G1 X125.878 Y85.486 E21.75987
G1 X126.621 Y85.684 E21.79823
G1 X127.34 Y85.958 E21.83662
G1 X128.026 Y86.305 E21.87497
G1 X128.673 Y86.721 E21.91335
G1 X129.273 Y87.202 E21.95171
G1 X129.82 Y87.743 E21.99009
G1 X130.308 Y88.338 E22.02849
G1 X130.731 Y88.98 E22.06684
G1 X131.086 Y89.663 E22.10525
G1 X131.367 Y90.378 E22.14357
G1 X131.573 Y91.119 E22.18194
G1 X131.701 Y91.878 E22.22035
G1 X131.75 Y92.727 E22.26277
G1 X131.75 Y105.524 E22.90122
G1 X175 Y105.524 E25.05897
G1 X175.768 Y105.564 E25.09734
G1 X176.528 Y105.683 E25.13572
G1 X177.271 Y105.881 E25.17408
G1 X177.99 Y106.155 E25.21246
G1 X178.676 Y106.502 E25.25082
G1 X179.323 Y106.918 E25.28919
G1 X179.923 Y107.399 E25.32756
G1 X180.47 Y107.94 E25.36594
G1 X180.958 Y108.535 E25.40433
G1 X181.381 Y109.177 E25.44269
G1 X181.736 Y109.86 E25.48109
G1 X182.017 Y110.575 E25.51942
G1 X182.223 Y111.317 E25.55784
G1 X182.351 Y112.075 E25.59619
G1 X182.4 Y112.924 E25.63862
G1 X182.399 Y159.658 E27.97019
G1 X182.376 Y160.246 E27.99955
G1 X182.352 Y160.547 E28.01461
G1 X182.242 Y161.354 E28.05524
G1 X182.185 Y161.651 E28.07033
G1 X182 Y162.403 E28.10897
G1 X181.913 Y162.69 E28.12393
G1 X181.653 Y163.41 E28.16212
G1 X181.566 Y163.617 E28.17332
G1 X181.271 Y164.236 E28.20753
G1 X181.13 Y164.5 E28.22247
G1 X180.836 Y165.003 E28.25153
G1 X180.756 Y165.128 E28.25894
G1 X180.463 Y165.552 E28.28465
G1 X180.33 Y165.731 E28.29577
G1 X179.853 Y166.309 E28.33316
G1 X179.652 Y166.529 E28.34803
G1 X179.149 Y167.03 E28.38345
G1 X178.984 Y167.179 E28.39454
G1 X178.469 Y167.603 E28.42782
G1 X178.292 Y167.736 E28.43887
G1 X177.833 Y168.055 E28.46675
G1 X177.65 Y168.172 E28.47759
G1 X176.963 Y168.561 E28.51698
G1 X176.7 Y168.692 E28.53164
G1 X175.93 Y169.022 E28.57343
G1 X175.655 Y169.122 E28.58803
G1 X174.819 Y169.372 E28.63156
G1 X174.534 Y169.439 E28.64617
G1 X173.826 Y169.569 E28.68208
G1 X173.61 Y169.598 E28.69296
G1 X173.035 Y169.653 E28.72177
G1 X172.481 Y169.672 E28.74943
G1 X77.61 Y169.673 E33.48256
G1 X76.948 Y169.643 E33.51562
G1 X76.625 Y169.614 E33.5318
G1 X75.805 Y169.494 E33.57315
G1 X75.575 Y169.447 E33.58486
G1 X74.846 Y169.259 E33.62242
G1 X74.549 Y169.166 E33.63795
G1 X73.822 Y168.896 E33.67664
G1 X73.607 Y168.803 E33.68832
G1 X72.909 Y168.456 E33.72721
G1 X72.636 Y168.302 E33.74285
G1 X71.907 Y167.833 E33.7861
G1 X71.651 Y167.646 E33.80191
G1 X71.054 Y167.16 E33.84032
G1 X70.877 Y167 E33.85222
G1 X70.335 Y166.456 E33.89054
G1 X70.122 Y166.219 E33.90643
G1 X69.68 Y165.678 E33.94129
G1 X69.537 Y165.485 E33.95327
G1 X69.105 Y164.833 E33.99229
G1 X68.942 Y164.556 E34.00833
G1 X68.562 Y163.817 E34.04978
G1 X68.43 Y163.521 E34.06595
G1 X68.159 Y162.82 E34.10345
G1 X68.083 Y162.589 E34.11558
G1 X67.915 Y161.996 E34.14633
G1 X67.861 Y161.77 E34.15792
G1 X67.75 Y161.215 E34.18616
G1 X67.71 Y160.964 E34.19884
G1 X67.629 Y160.207 E34.23682
G1 X67.6 Y159.473 E34.27347
G1 X67.601 Y95.447 E37.46774
G1 X67.628 Y94.814 E37.49935
G1 X67.656 Y94.488 E37.51567
G1 X67.776 Y93.652 E37.55781
G1 X67.838 Y93.346 E37.57339
G1 X68.048 Y92.543 E37.6148
G1 X68.148 Y92.233 E37.63105
G1 X68.424 Y91.51 E37.66966
G1 X68.528 Y91.275 E37.68248
G1 X68.822 Y90.684 E37.71541
G1 X68.94 Y90.471 E37.72756
G1 X69.265 Y89.938 E37.7587
G1 X69.401 Y89.735 E37.77089
G1 X69.847 Y89.137 E37.80811
G1 X70.053 Y88.888 E37.82423
G1 X70.673 Y88.226 E37.86948
G1 X70.909 Y88.003 E37.88568
G1 X71.454 Y87.536 E37.92149
G0 X71.699 Y87.852
G1 X71.891 Y87.703 E37.93361
G1 X72.401 Y87.343 E37.96476
G1 X72.605 Y87.212 E37.97685
G1 X73.231 Y86.854 E38.01283
G1 X73.52 Y86.708 E38.02899
G1 X74.249 Y86.39 E38.06867
G1 X74.552 Y86.278 E38.08478
G1 X75.358 Y86.034 E38.1268
G1 X75.673 Y85.959 E38.14295
G1 X76.369 Y85.83 E38.17827
G1 X76.609 Y85.798 E38.19035
G1 X77.141 Y85.748 E38.217
G1 X77.694 Y85.728 E38.24461
G1 X124.35 Y85.727 E40.57229
G1 X125.097 Y85.767 E40.60961
G1 X125.835 Y85.886 E40.6469
G1 X126.557 Y86.084 E40.68426
G1 X127.253 Y86.357 E40.72155
G1 X127.916 Y86.704 E40.75889
G1 X128.539 Y87.119 E40.79623
G1 X129.113 Y87.598 E40.83353
G1 X129.633 Y88.135 E40.87083
G1 X130.093 Y88.725 E40.90815
G1 X130.488 Y89.361 E40.9455
G1 X130.812 Y90.035 E40.98281
G1 X131.062 Y90.74 E41.02013
G1 X131.236 Y91.468 E41.05747
G1 X131.331 Y92.21 E41.09479
G1 X131.35 Y92.727 E41.1206
G1 X131.35 Y105.924 E41.77901
G1 X175 Y105.924 E43.95671
G1 X175.747 Y105.964 E43.99403
G1 X176.485 Y106.083 E44.03133
G1 X177.207 Y106.281 E44.06868
G1 X177.903 Y106.554 E44.10598
G1 X178.566 Y106.901 E44.14331
G1 X179.189 Y107.316 E44.18066
G1 X179.763 Y107.795 E44.21796
G1 X180.284 Y108.332 E44.25528
G1 X180.743 Y108.922 E44.29258
G1 X181.138 Y109.558 E44.32993
G1 X181.462 Y110.232 E44.36724
G1 X181.712 Y110.937 E44.40456
G1 X181.886 Y111.665 E44.4419
G1 X181.981 Y112.407 E44.47922
G1 X182 Y112.924 E44.50503
G1 X181.999 Y159.658 E46.8366
G1 X181.977 Y160.214 E46.86436
G1 X181.953 Y160.515 E46.87943
G1 X181.85 Y161.278 E46.91784
G1 X181.793 Y161.575 E46.93293
G1 X181.617 Y162.287 E46.96952
G1 X181.53 Y162.574 E46.98448
G1 X181.284 Y163.255 E47.0206
G1 X181.197 Y163.462 E47.03181
G1 X180.919 Y164.048 E47.06416
G1 X180.778 Y164.312 E47.0791
G1 X180.499 Y164.787 E47.10658
G1 X180.142 Y165.314 E47.13834
G1 X180.009 Y165.493 E47.14946
G1 X179.558 Y166.04 E47.18483
G1 X179.357 Y166.26 E47.1997
G1 X178.88 Y166.733 E47.23321
G1 X178.715 Y166.882 E47.2443
G1 X178.229 Y167.283 E47.27574
G1 X178.052 Y167.416 E47.28678
G1 X177.618 Y167.718 E47.31316
G1 X177.435 Y167.835 E47.324
G1 X176.785 Y168.203 E47.36126
G1 X176.522 Y168.334 E47.37592
G1 X175.793 Y168.647 E47.4155
G1 X175.518 Y168.747 E47.4301
G1 X174.728 Y168.982 E47.47122
G1 X174.443 Y169.049 E47.48583
G1 X173.772 Y169.173 E47.51987
G1 X173.556 Y169.202 E47.53075
G1 X173.013 Y169.253 E47.55795
G1 X172.481 Y169.272 E47.58451
G1 X77.61 Y169.273 E52.31765
G1 X76.984 Y169.245 E52.34891
G1 X76.661 Y169.216 E52.36509
G1 X75.886 Y169.102 E52.40417
G1 X75.656 Y169.055 E52.41588
G1 X74.965 Y168.877 E52.45148
G1 X74.668 Y168.784 E52.46701
G1 X73.981 Y168.529 E52.50357
G1 X73.766 Y168.436 E52.51525
G1 X73.106 Y168.108 E52.55202
G1 X72.833 Y167.954 E52.56766
G1 X72.143 Y167.51 E52.6086
G1 X71.887 Y167.323 E52.62441
G1 X71.322 Y166.863 E52.66076
G1 X71.145 Y166.703 E52.67267
G1 X70.633 Y166.189 E52.70886
G1 X70.42 Y165.952 E52.72476
G1 X70.002 Y165.44 E52.75773
G1 X69.859 Y165.247 E52.76972
G1 X69.45 Y164.63 E52.80665
G1 X69.287 Y164.353 E52.82268
G1 X68.927 Y163.654 E52.86191
G1 X68.795 Y163.358 E52.87808
G1 X68.539 Y162.695 E52.91354
G1 X68.463 Y162.464 E52.92567
G1 X68.304 Y161.903 E52.95476
G1 X68.25 Y161.677 E52.96635
G1 X68.145 Y161.152 E52.99306
G1 X68.105 Y160.901 E53.00574
G1 X68.029 Y160.185 E53.04167
G1 X68 Y159.473 E53.07722
G1 X68.001 Y95.447 E56.27149
G1 X68.027 Y94.848 E56.3014
G1 X68.055 Y94.522 E56.31772
G1 X68.168 Y93.731 E56.35759
G1 X68.23 Y93.425 E56.37316
G1 X68.429 Y92.666 E56.41231
G1 X68.529 Y92.356 E56.42856
G1 X68.79 Y91.672 E56.46509
G1 X68.894 Y91.437 E56.47791
G1 X69.172 Y90.878 E56.50905
G1 X69.29 Y90.665 E56.5212
G1 X69.597 Y90.161 E56.55065
G1 X69.733 Y89.958 E56.56284
G1 X70.156 Y89.392 E56.59809
G1 X70.362 Y89.143 E56.61421
G1 X70.947 Y88.517 E56.65696
G1 X71.183 Y88.294 E56.67316
G1 X71.699 Y87.852 E56.70705
G0 X71.945 Y88.168
G1 X72.137 Y88.019 E56.71918
G1 X72.617 Y87.679 E56.74852
G1 X72.821 Y87.548 E56.76062
G1 X73.411 Y87.211 E56.79452
G1 X73.7 Y87.065 E56.81067
G1 X74.388 Y86.765 E56.84812
G1 X74.691 Y86.653 E56.86423
G1 X75.45 Y86.423 E56.9038
G1 X75.765 Y86.348 E56.91996
G1 X76.422 Y86.227 E56.95328
G1 X76.662 Y86.195 E56.96536
G1 X77.163 Y86.147 E56.99047
G1 X77.694 Y86.128 E57.01698
G1 X124.35 Y86.127 E59.34466
G1 X125.075 Y86.167 E59.38088
G1 X125.792 Y86.286 E59.41715
G1 X126.491 Y86.484 E59.45339
G1 X127.164 Y86.757 E59.48962
G1 X127.803 Y87.102 E59.52585
G1 X128.4 Y87.516 E59.5621
G1 X128.948 Y87.992 E59.59831
G1 X129.44 Y88.526 E59.63454
G1 X129.871 Y89.111 E59.67079
G1 X130.235 Y89.74 E59.70705
G1 X130.528 Y90.404 E59.74325
G1 X130.746 Y91.097 E59.7795
G1 X130.886 Y91.81 E59.81575
G1 X130.95 Y92.727 E59.86161
G1 X130.95 Y106.324 E60.53997
G1 X175 Y106.324 E62.73763
G1 X175.725 Y106.364 E62.77386
G1 X176.442 Y106.483 E62.81012
G1 X177.141 Y106.681 E62.84636
G1 X177.814 Y106.954 E62.8826
G1 X178.453 Y107.299 E62.91883
G1 X179.05 Y107.713 E62.95507
G1 X179.598 Y108.189 E62.99128
G1 X180.091 Y108.723 E63.02754
G1 X180.521 Y109.308 E63.06377
G1 X180.885 Y109.937 E63.10002
G1 X181.178 Y110.602 E63.13628
G1 X181.396 Y111.295 E63.17252
G1 X181.536 Y112.007 E63.20872
G1 X181.6 Y112.924 E63.25458
G1 X181.599 Y159.658 E65.58615
G1 X181.578 Y160.183 E65.61237
G1 X181.554 Y160.484 E65.62743
G1 X181.457 Y161.203 E65.66363
G1 X181.4 Y161.5 E65.67871
G1 X181.234 Y162.171 E65.7132
G1 X181.147 Y162.458 E65.72816
G1 X180.915 Y163.1 E65.76222
G1 X180.828 Y163.307 E65.77342
G1 X180.566 Y163.859 E65.8039
G1 X180.425 Y164.123 E65.81884
G1 X180.162 Y164.572 E65.8448
G1 X179.821 Y165.075 E65.87511
G1 X179.688 Y165.254 E65.88624
G1 X179.263 Y165.77 E65.91959
G1 X179.062 Y165.99 E65.93446
G1 X178.612 Y166.436 E65.96607
G1 X178.447 Y166.585 E65.97716
G1 X177.989 Y166.963 E66.00679
G1 X177.402 Y167.381 E66.04274
G1 X177.219 Y167.498 E66.05357
G1 X176.607 Y167.845 E66.08867
G1 X176.344 Y167.976 E66.10333
G1 X175.657 Y168.271 E66.14063
G1 X175.382 Y168.371 E66.15523
G1 X174.636 Y168.593 E66.19406
G1 X174.351 Y168.66 E66.20867
G1 X173.719 Y168.776 E66.24073
G1 X173.503 Y168.805 E66.2516
G1 X172.991 Y168.854 E66.27726
G1 X172.481 Y168.872 E66.30272
G1 X77.61 Y168.873 E71.03585
G1 X77.02 Y168.847 E71.06532
G1 X76.697 Y168.818 E71.0815
G1 X75.966 Y168.71 E71.11836
G1 X75.736 Y168.663 E71.13007
G1 X75.085 Y168.495 E71.16362
G1 X74.788 Y168.402 E71.17914
G1 X74.14 Y168.162 E71.21362
G1 X73.925 Y168.069 E71.22531
G1 X73.302 Y167.759 E71.26002
G1 X73.029 Y167.605 E71.27566
G1 X72.379 Y167.187 E71.31422
G1 X72.123 Y167 E71.33003
G1 X71.59 Y166.566 E71.36432
G1 X71.413 Y166.406 E71.37623
G1 X70.93 Y165.922 E71.41034
G1 X70.717 Y165.685 E71.42624
G1 X70.323 Y165.202 E71.45734
G1 X70.18 Y165.009 E71.46932
G1 X69.795 Y164.427 E71.50413
G1 X69.632 Y164.15 E71.52017
G1 X69.292 Y163.491 E71.55716
G1 X69.16 Y163.195 E71.57333
G1 X68.919 Y162.57 E71.60675
G1 X68.843 Y162.339 E71.61889
G1 X68.693 Y161.81 E71.64632
G1 X68.639 Y161.584 E71.65791
G1 X68.54 Y161.089 E71.68309
G1 X68.5 Y160.838 E71.69578
G1 X68.428 Y160.163 E71.72964
G1 X68.4 Y159.473 E71.76409
G1 X68.401 Y95.447 E74.95836
G1 X68.425 Y94.882 E74.98658
G1 X68.453 Y94.556 E75.0029
G1 X68.56 Y93.81 E75.0405
G1 X68.622 Y93.504 E75.05608
G1 X68.81 Y92.789 E75.09296
G1 X68.91 Y92.479 E75.10921
G1 X69.156 Y91.834 E75.14365
G1 X69.26 Y91.599 E75.15647
G1 X69.522 Y91.072 E75.18584
G1 X69.64 Y90.859 E75.19798
G1 X69.93 Y90.384 E75.22575
G1 X70.066 Y90.181 E75.23794
G1 X70.464 Y89.647 E75.27117
G1 X70.67 Y89.398 E75.28729
G1 X71.222 Y88.808 E75.3276
G1 X71.458 Y88.585 E75.3438
G1 X71.945 Y88.168 E75.37578
G0 X72.19 Y88.484
