;FLAVOR:Marlin
;TIME:1470
;Filament used: 2.69326m
;Layer height: 0.1
;MINX:68.605
;MINY:87.672
;MINZ:0.3
;MAXX:181.395
;MAXY:167.328
;MAXZ:1.4
;Generated with Cura_SteamEngine master
M140 S60
M105
M190 S60
M104 S200
M105
M109 S200
M82 ;absolute extrusion mode
G21 ;metric values
G90 ;absolute positioning
M82 ;set extruder to absolute mode
M107 ;start with the fan off
G28 X0 Y0 ;move X/Y to min endstops
M300 S1318 P266
G28 Z0 ;move Z to min endstops
G0 Z0.2
G92 E0 ;zero the extruded length
G1 X40 E25 F400 ; Extrude 25mm of filament in a 4cm line. Reduce speed (F) if you have a nozzle smaller than 0.4mm!
G92 E0 ;zero the extruded length again
G1 E-1 F500 ; Retract a little
G1 X80 F4000 ; Quickly wipe away from the filament line
M117 ; Printing…
G5
G92 E0
G92 E0
G1 F1500 E-6.5
;LAYER_COUNT:12
;LAYER:0
M107
M204 S5000
M205 X30 Y30
G0 F3600 X72.605 Y89.908 Z0.3
;TYPE:SKIRT
G1 F1500 E0
G1 F3600 X72.927 Y89.675 E0.01983
G1 X73.388 Y89.359 E0.04771
G1 X74.31 Y88.816 E0.1011
G1 X74.872 Y88.561 E0.13189
G1 X75.382 Y88.353 E0.15936
G1 X76.362 Y88.027 E0.21089
G1 X77.044 Y87.88 E0.2457
G1 X77.593 Y87.787 E0.27348
G1 X78.64 Y87.681 E0.32598
G1 X79.048 Y87.672 E0.34634
G1 X121.867 Y87.672 E2.48259
G1 X122.656 Y87.712 E2.522
G1 X123.436 Y87.831 E2.56137
G1 X124.201 Y88.029 E2.60079
G1 X124.941 Y88.303 E2.64016
G1 X125.65 Y88.651 E2.67956
G1 X126.321 Y89.069 E2.719
G1 X126.945 Y89.552 E2.75837
G1 X127.382 Y89.957 E2.7881
G1 X127.499 Y90.074 E2.79635
G1 X128.029 Y90.66 E2.83577
G1 X128.496 Y91.296 E2.87514
G1 X128.897 Y91.976 E2.91452
G1 X129.227 Y92.694 E2.95394
G1 X129.482 Y93.441 E2.99332
G1 X129.661 Y94.21 E3.03272
G1 X129.761 Y94.994 E3.07215
G1 X129.784 Y95.589 E3.10185
G1 X129.784 Y109.295 E3.78565
G1 X130.332 Y109.719 E3.82022
G1 X130.769 Y110.124 E3.84994
G1 X130.886 Y110.241 E3.8582
G1 X131.416 Y110.827 E3.89762
G1 X131.883 Y111.463 E3.93698
G1 X132.284 Y112.143 E3.97637
G1 X132.614 Y112.861 E4.01579
G1 X132.869 Y113.608 E4.05517
G1 X133.048 Y114.377 E4.09456
G1 X133.148 Y115.161 E4.13399
G1 X133.171 Y115.756 E4.1637
G1 X133.171 Y120.479 E4.39933
G1 X162.522 Y120.479 E5.86366
G1 X162.522 Y115.756 E6.09929
G1 X162.562 Y114.967 E6.1387
G1 X162.681 Y114.187 E6.17807
G1 X162.879 Y113.422 E6.21749
G1 X163.153 Y112.682 E6.25686
G1 X163.501 Y111.973 E6.29626
G1 X163.919 Y111.302 E6.3357
G1 X164.402 Y110.678 E6.37507
G1 X164.807 Y110.241 E6.4048
G1 X164.924 Y110.124 E6.41305
G1 X165.51 Y109.594 E6.45247
G1 X166.146 Y109.127 E6.49184
G1 X166.826 Y108.726 E6.53122
G1 X167.544 Y108.396 E6.57064
G1 X168.291 Y108.141 E6.61002
G1 X169.06 Y107.962 E6.64941
G1 X169.844 Y107.862 E6.68885
G1 X170.439 Y107.839 E6.71855
G1 X173.478 Y107.839 E6.87017
G1 X174.267 Y107.879 E6.90958
G1 X175.047 Y107.998 E6.94895
G1 X175.812 Y108.196 E6.98837
G1 X176.552 Y108.47 E7.02774
G1 X177.261 Y108.818 E7.06714
G1 X177.932 Y109.236 E7.10658
G1 X178.556 Y109.719 E7.14595
G1 X178.993 Y110.124 E7.17568
G1 X179.11 Y110.241 E7.18393
G1 X179.64 Y110.827 E7.22335
G1 X180.107 Y111.463 E7.26272
G1 X180.508 Y112.143 E7.3021
G1 X180.838 Y112.861 E7.34152
G1 X181.093 Y113.608 E7.3809
G1 X181.272 Y114.377 E7.42029
G1 X181.372 Y115.161 E7.45973
G1 X181.395 Y115.756 E7.48943
G1 X181.394 Y156.9 E9.54212
G1 X181.351 Y157.722 E9.58318
G1 X181.294 Y158.26 E9.61017
G1 X181.171 Y159.04 E9.64957
G1 X180.948 Y159.872 E9.69254
G1 X180.771 Y160.411 E9.72084
G1 X180.464 Y161.198 E9.76299
G1 X180.064 Y161.969 E9.80632
G1 X179.79 Y162.432 E9.83316
G1 X179.234 Y163.249 E9.88247
G1 X178.76 Y163.806 E9.91896
G1 X178.384 Y164.208 E9.94642
G1 X178.016 Y164.576 E9.97238
G1 X177.414 Y165.087 E10.01178
G1 X177.081 Y165.329 E10.03232
G1 X176.623 Y165.643 E10.06002
G1 X175.7 Y166.187 E10.11347
G1 X175.134 Y166.444 E10.14448
G1 X174.633 Y166.648 E10.17147
G1 X173.657 Y166.972 E10.22278
G1 X172.984 Y167.118 E10.25713
G1 X172.433 Y167.212 E10.28502
G1 X171.381 Y167.319 E10.33778
G1 X170.971 Y167.328 E10.35824
G1 X79.153 Y167.327 E14.93905
G1 X78.328 Y167.283 E14.98027
G1 X77.764 Y167.223 E15.00857
G1 X76.984 Y167.1 E15.04796
G1 X76.158 Y166.879 E15.09062
G1 X75.597 Y166.695 E15.12008
G1 X74.807 Y166.387 E15.16238
G1 X73.993 Y165.961 E15.20822
G1 X73.48 Y165.653 E15.23807
G1 X72.824 Y165.213 E15.27748
G1 X72.148 Y164.644 E15.32156
G1 X71.719 Y164.24 E15.35096
G1 X71.172 Y163.671 E15.39034
G1 X70.626 Y162.962 E15.43498
G1 X70.296 Y162.479 E15.46417
G1 X69.824 Y161.693 E15.50991
G1 X69.494 Y160.983 E15.54897
G1 X69.279 Y160.451 E15.5776
G1 X68.963 Y159.494 E15.62788
G1 X68.815 Y158.809 E15.66284
G1 X68.719 Y158.241 E15.69158
G1 X68.614 Y157.201 E15.74373
G1 X68.605 Y156.791 E15.76419
G1 X68.605 Y146.063 E16.29941
G1 X68.645 Y145.274 E16.33883
G1 X68.764 Y144.494 E16.37819
G1 X68.962 Y143.729 E16.41761
G1 X69.236 Y142.989 E16.45698
G1 X69.584 Y142.28 E16.49638
G1 X70.002 Y141.609 E16.53583
G1 X70.485 Y140.985 E16.57519
G1 X70.89 Y140.548 E16.60492
G1 X71.007 Y140.431 E16.61317
G1 X71.593 Y139.901 E16.65259
G1 X72.229 Y139.434 E16.69196
G1 X72.909 Y139.033 E16.73134
G1 X73.627 Y138.703 E16.77077
G1 X74.374 Y138.448 E16.81015
G1 X75.143 Y138.269 E16.84954
G1 X75.927 Y138.169 E16.88897
G1 X76.522 Y138.146 E16.91868
G1 X80.917 Y138.146 E17.13794
G1 X80.917 Y107.735 E18.65515
G1 X76.522 Y107.735 E18.87442
G1 X75.733 Y107.695 E18.91384
G1 X74.953 Y107.576 E18.9532
G1 X74.188 Y107.378 E18.99262
G1 X73.448 Y107.104 E19.03199
G1 X72.739 Y106.756 E19.07139
G1 X72.068 Y106.338 E19.11084
G1 X71.444 Y105.855 E19.1502
G1 X71.007 Y105.45 E19.17993
G1 X70.89 Y105.333 E19.18818
G1 X70.36 Y104.747 E19.2276
G1 X69.893 Y104.111 E19.26697
G1 X69.492 Y103.431 E19.30635
G1 X69.162 Y102.713 E19.34578
G1 X68.907 Y101.966 E19.38516
G1 X68.728 Y101.197 E19.42455
G1 X68.628 Y100.413 E19.46398
G1 X68.605 Y99.813 E19.49393
G1 X68.606 Y98.113 E19.57875
G1 X68.649 Y97.304 E19.61917
G1 X68.706 Y96.761 E19.64641
G1 X68.828 Y95.981 E19.68579
G1 X69.049 Y95.15 E19.72869
G1 X69.223 Y94.618 E19.75662
G1 X69.533 Y93.822 E19.79924
G1 X69.942 Y93.036 E19.84344
G1 X70.231 Y92.55 E19.87165
G1 X70.668 Y91.893 E19.91102
G1 X71.236 Y91.211 E19.9553
G1 X71.622 Y90.798 E19.9835
G1 X72.002 Y90.419 E20.01028
G1 X72.605 Y89.908 E20.04971
G0 X73.153 Y90.005
G1 X73.614 Y89.689 E20.07759
G1 X74.489 Y89.174 E20.12825
G1 X75.023 Y88.931 E20.15752
G1 X75.533 Y88.723 E20.185
G1 X76.464 Y88.414 E20.23393
G1 X77.111 Y88.274 E20.26696
G1 X77.66 Y88.181 E20.29474
G1 X78.653 Y88.081 E20.34453
G1 X79.048 Y88.072 E20.36424
G1 X121.867 Y88.072 E22.50049
G1 X122.635 Y88.112 E22.53886
G1 X123.395 Y88.231 E22.57724
G1 X124.138 Y88.429 E22.6156
G1 X124.857 Y88.703 E22.65399
G1 X125.543 Y89.05 E22.69234
G1 X126.19 Y89.466 E22.73072
G1 X126.79 Y89.947 E22.76908
G1 X127.217 Y90.356 E22.79858
G1 X127.731 Y90.928 E22.83695
G1 X128.184 Y91.55 E22.87534
G1 X128.57 Y92.215 E22.9137
G1 X128.885 Y92.917 E22.95209
G1 X129.125 Y93.648 E22.99047
G1 X129.288 Y94.399 E23.02881
G1 X129.372 Y95.164 E23.06721
G1 X129.384 Y95.589 E23.08842
G1 X129.384 Y109.509 E23.78289
G1 X129.577 Y109.633 E23.79433
G1 X130.177 Y110.114 E23.8327
G1 X130.604 Y110.523 E23.8622
G1 X131.118 Y111.095 E23.90057
G1 X131.571 Y111.717 E23.93895
G1 X131.957 Y112.382 E23.97732
G1 X132.272 Y113.084 E24.0157
G1 X132.512 Y113.815 E24.05409
G1 X132.675 Y114.566 E24.09243
G1 X132.759 Y115.331 E24.13082
G1 X132.771 Y115.756 E24.15204
G1 X132.771 Y120.879 E24.40762
G1 X162.922 Y120.879 E25.91186
G1 X162.922 Y115.756 E26.16745
G1 X162.962 Y114.988 E26.20582
G1 X163.081 Y114.228 E26.2442
G1 X163.279 Y113.485 E26.28256
G1 X163.553 Y112.766 E26.32095
G1 X163.9 Y112.08 E26.3593
G1 X164.316 Y111.433 E26.39767
G1 X164.797 Y110.833 E26.43604
G1 X165.206 Y110.406 E26.46554
G1 X165.778 Y109.892 E26.50391
G1 X166.4 Y109.439 E26.54229
G1 X167.065 Y109.053 E26.58066
G1 X167.767 Y108.738 E26.61904
G1 X168.498 Y108.498 E26.65743
G1 X169.249 Y108.335 E26.69577
G1 X170.014 Y108.251 E26.73416
G1 X170.439 Y108.239 E26.75538
G1 X173.478 Y108.239 E26.90699
G1 X174.246 Y108.279 E26.94536
G1 X175.006 Y108.398 E26.98374
G1 X175.749 Y108.596 E27.0221
G1 X176.468 Y108.87 E27.06049
G1 X177.154 Y109.217 E27.09884
G1 X177.801 Y109.633 E27.13722
G1 X178.401 Y110.114 E27.17558
G1 X178.828 Y110.523 E27.20508
G1 X179.342 Y111.095 E27.24345
G1 X179.795 Y111.717 E27.28184
G1 X180.181 Y112.382 E27.3202
G1 X180.496 Y113.084 E27.35858
G1 X180.736 Y113.815 E27.39697
G1 X180.899 Y114.566 E27.43531
G1 X180.983 Y115.331 E27.47371
G1 X180.995 Y115.756 E27.49492
G1 X180.994 Y156.9 E29.5476
G1 X180.953 Y157.68 E29.58657
G1 X180.896 Y158.218 E29.61356
G1 X180.775 Y158.977 E29.6519
G1 X180.568 Y159.747 E29.69168
G1 X180.391 Y160.286 E29.71999
G1 X180.099 Y161.034 E29.76005
G1 X179.719 Y161.766 E29.80119
G1 X179.445 Y162.229 E29.82804
G1 X178.904 Y163.021 E29.87589
G1 X178.467 Y163.533 E29.90947
G1 X178.091 Y163.935 E29.93693
G1 X177.742 Y164.285 E29.96159
G1 X176.854 Y164.999 E30.01844
G1 X176.396 Y165.313 E30.04614
G1 X175.521 Y165.829 E30.09682
G1 X174.983 Y166.074 E30.12631
G1 X174.482 Y166.278 E30.1533
G1 X173.555 Y166.585 E30.20202
G1 X172.916 Y166.724 E30.23465
G1 X172.365 Y166.818 E30.26253
G1 X171.368 Y166.919 E30.31253
G1 X170.971 Y166.928 E30.33234
G1 X79.153 Y166.927 E34.91316
G1 X78.37 Y166.885 E34.95228
G1 X77.806 Y166.825 E34.98057
G1 X77.047 Y166.704 E35.01892
G1 X76.283 Y166.498 E35.0584
G1 X75.722 Y166.314 E35.08785
G1 X74.971 Y166.022 E35.12805
G1 X74.199 Y165.618 E35.17152
G1 X73.686 Y165.31 E35.20137
G1 X73.048 Y164.881 E35.23973
G1 X72.422 Y164.353 E35.28059
G1 X71.993 Y163.949 E35.30999
G1 X71.461 Y163.394 E35.34834
G1 X70.956 Y162.737 E35.38969
G1 X70.626 Y162.254 E35.41887
G1 X70.178 Y161.507 E35.46233
G1 X69.865 Y160.833 E35.4994
G1 X69.65 Y160.301 E35.52803
G1 X69.35 Y159.392 E35.57578
G1 X69.209 Y158.742 E35.60897
G1 X69.113 Y158.174 E35.63771
G1 X69.014 Y157.188 E35.68715
G1 X69.005 Y156.791 E35.70696
G1 X69.005 Y146.063 E36.24218
G1 X69.045 Y145.295 E36.28055
G1 X69.164 Y144.535 E36.31893
G1 X69.362 Y143.792 E36.35729
G1 X69.636 Y143.073 E36.39567
G1 X69.983 Y142.387 E36.43403
G1 X70.399 Y141.74 E36.4724
G1 X70.88 Y141.14 E36.51077
G1 X71.289 Y140.713 E36.54027
G1 X71.861 Y140.199 E36.57864
G1 X72.483 Y139.746 E36.61702
G1 X73.148 Y139.36 E36.65539
G1 X73.85 Y139.045 E36.69377
G1 X74.581 Y138.805 E36.73216
G1 X75.332 Y138.642 E36.7705
G1 X76.097 Y138.558 E36.80889
G1 X76.522 Y138.546 E36.8301
G1 X81.317 Y138.546 E37.06933
G1 X81.317 Y107.335 E38.62645
G1 X76.522 Y107.335 E38.86567
G1 X75.754 Y107.295 E38.90404
G1 X74.994 Y107.176 E38.94242
G1 X74.251 Y106.978 E38.98078
G1 X73.532 Y106.704 E39.01917
G1 X72.846 Y106.357 E39.05752
G1 X72.199 Y105.941 E39.0959
G1 X71.599 Y105.46 E39.13427
G1 X71.172 Y105.051 E39.16376
G1 X70.658 Y104.479 E39.20213
G1 X70.205 Y103.857 E39.24052
G1 X69.819 Y103.192 E39.27888
G1 X69.504 Y102.49 E39.31727
G1 X69.264 Y101.759 E39.35565
G1 X69.101 Y101.008 E39.39399
G1 X69.017 Y100.243 E39.43239
G1 X69.005 Y99.814 E39.4538
G1 X69.006 Y98.114 E39.53861
G1 X69.046 Y97.345 E39.57703
G1 X69.103 Y96.802 E39.60427
G1 X69.223 Y96.043 E39.64261
G1 X69.43 Y95.275 E39.68229
G1 X69.604 Y94.743 E39.71022
G1 X69.898 Y93.986 E39.75073
G1 X70.286 Y93.241 E39.79264
G1 X70.575 Y92.755 E39.82085
G1 X71.002 Y92.115 E39.85923
G1 X71.529 Y91.484 E39.90025
G1 X71.915 Y91.071 E39.92845
G1 X72.276 Y90.71 E39.95392
G1 X73.153 Y90.005 E40.01006
G0 X73.379 Y90.335
G1 X73.84 Y90.019 E40.03794
G1 X74.668 Y89.532 E40.08587
G1 X75.174 Y89.301 E40.11362
G1 X75.684 Y89.093 E40.1411
G1 X76.566 Y88.8 E40.18746
G1 X77.178 Y88.668 E40.2187
G1 X77.727 Y88.575 E40.24648
G1 X78.666 Y88.481 E40.29356
G1 X79.048 Y88.472 E40.31262
G1 X121.867 Y88.472 E42.44887
G1 X122.614 Y88.512 E42.48619
G1 X123.352 Y88.631 E42.52349
G1 X124.074 Y88.829 E42.56084
G1 X124.77 Y89.102 E42.59814
G1 X125.433 Y89.449 E42.63547
G1 X126.056 Y89.864 E42.67282
G1 X126.817 Y90.522 E42.72301
G1 X126.934 Y90.639 E42.73126
G1 X127.434 Y91.196 E42.76861
G1 X127.871 Y91.802 E42.80588
G1 X128.242 Y92.452 E42.84322
G1 X128.541 Y93.138 E42.88055
G1 X128.765 Y93.852 E42.91789
G1 X128.912 Y94.585 E42.95519
G1 X128.984 Y95.589 E43.0054
G1 X128.984 Y109.725 E43.71065
G1 X129.443 Y110.031 E43.73817
G1 X130.204 Y110.689 E43.78836
G1 X130.321 Y110.806 E43.79662
G1 X130.821 Y111.363 E43.83396
G1 X131.258 Y111.969 E43.87124
G1 X131.629 Y112.619 E43.90858
G1 X131.928 Y113.305 E43.94591
G1 X132.152 Y114.019 E43.98324
G1 X132.299 Y114.752 E44.02054
G1 X132.371 Y115.756 E44.07076
G1 X132.371 Y121.279 E44.3463
G1 X163.322 Y121.279 E45.89045
G1 X163.322 Y115.756 E46.166
G1 X163.362 Y115.009 E46.20332
G1 X163.481 Y114.271 E46.24061
G1 X163.679 Y113.549 E46.27796
G1 X163.952 Y112.853 E46.31526
G1 X164.299 Y112.19 E46.3526
G1 X164.714 Y111.567 E46.38994
G1 X165.372 Y110.806 E46.44013
G1 X165.489 Y110.689 E46.44839
G1 X166.046 Y110.189 E46.48573
G1 X166.652 Y109.752 E46.52301
G1 X167.302 Y109.381 E46.56035
G1 X167.988 Y109.082 E46.59768
G1 X168.702 Y108.858 E46.63501
G1 X169.435 Y108.711 E46.67231
G1 X170.439 Y108.639 E46.72253
G1 X173.478 Y108.639 E46.87415
G1 X174.225 Y108.679 E46.91147
G1 X174.963 Y108.798 E46.94876
G1 X175.685 Y108.996 E46.98611
G1 X176.381 Y109.269 E47.02341
G1 X177.044 Y109.616 E47.06075
G1 X177.667 Y110.031 E47.09809
G1 X178.428 Y110.689 E47.14828
G1 X178.545 Y110.806 E47.15654
G1 X179.045 Y111.363 E47.19388
G1 X179.482 Y111.969 E47.23115
G1 X179.853 Y112.619 E47.26849
G1 X180.152 Y113.305 E47.30583
G1 X180.376 Y114.019 E47.34316
G1 X180.523 Y114.752 E47.38046
G1 X180.595 Y115.756 E47.43068
G1 X180.594 Y156.9 E49.48336
G1 X180.555 Y157.638 E49.52023
G1 X180.498 Y158.176 E49.54722
G1 X180.38 Y158.914 E49.58451
G1 X180.188 Y159.622 E49.62111
G1 X180.011 Y160.161 E49.64941
G1 X179.734 Y160.87 E49.68739
G1 X179.375 Y161.562 E49.72628
G1 X179.101 Y162.025 E49.75312
G1 X178.588 Y162.776 E49.79849
G1 X178.175 Y163.26 E49.83024
G1 X177.799 Y163.662 E49.8577
G1 X177.468 Y163.993 E49.88105
G1 X176.628 Y164.669 E49.93485
G1 X176.17 Y164.983 E49.96255
G1 X175.342 Y165.471 E50.0105
G1 X174.832 Y165.703 E50.03845
G1 X174.331 Y165.907 E50.06544
G1 X173.453 Y166.199 E50.1116
G1 X172.849 Y166.329 E50.14243
G1 X172.298 Y166.423 E50.17031
G1 X171.354 Y166.519 E50.21765
G1 X170.971 Y166.528 E50.23677
G1 X79.153 Y166.527 E54.81758
G1 X78.412 Y166.488 E54.8546
G1 X77.848 Y166.428 E54.8829
G1 X77.11 Y166.309 E54.9202
G1 X76.407 Y166.118 E54.95654
G1 X75.846 Y165.934 E54.986
G1 X75.135 Y165.657 E55.02406
G1 X74.405 Y165.275 E55.06517
G1 X73.892 Y164.967 E55.09502
G1 X73.272 Y164.549 E55.13233
G1 X72.696 Y164.062 E55.16996
G1 X72.267 Y163.658 E55.19936
G1 X71.751 Y163.117 E55.23666
G1 X71.286 Y162.511 E55.27477
G1 X70.956 Y162.028 E55.30395
G1 X70.532 Y161.32 E55.34512
G1 X70.236 Y160.683 E55.38017
G1 X70.021 Y160.151 E55.40879
G1 X69.736 Y159.29 E55.45404
G1 X69.604 Y158.676 E55.48537
G1 X69.508 Y158.108 E55.51411
G1 X69.414 Y157.174 E55.56094
G1 X69.405 Y156.791 E55.58006
G1 X69.405 Y146.063 E56.11528
G1 X69.445 Y145.316 E56.1526
G1 X69.564 Y144.578 E56.1899
G1 X69.762 Y143.856 E56.22725
G1 X70.035 Y143.16 E56.26455
G1 X70.382 Y142.497 E56.30188
G1 X70.797 Y141.874 E56.33923
G1 X71.455 Y141.113 E56.38942
G1 X71.572 Y140.996 E56.39767
G1 X72.129 Y140.496 E56.43501
G1 X72.735 Y140.059 E56.47229
G1 X73.385 Y139.688 E56.50963
G1 X74.071 Y139.389 E56.54696
G1 X74.785 Y139.165 E56.5843
G1 X75.518 Y139.018 E56.62159
G1 X76.522 Y138.946 E56.67181
G1 X81.717 Y138.946 E56.93099
G1 X81.717 Y106.935 E58.52803
G1 X76.522 Y106.935 E58.78721
G1 X75.775 Y106.895 E58.82453
G1 X75.037 Y106.776 E58.86182
G1 X74.315 Y106.578 E58.89917
G1 X73.619 Y106.305 E58.93647
G1 X72.956 Y105.958 E58.97381
G1 X72.333 Y105.543 E59.01115
G1 X71.572 Y104.885 E59.06134
G1 X71.455 Y104.768 E59.0696
G1 X70.955 Y104.211 E59.10694
G1 X70.518 Y103.605 E59.14421
G1 X70.147 Y102.955 E59.18155
G1 X69.848 Y102.269 E59.21889
G1 X69.624 Y101.555 E59.25622
G1 X69.477 Y100.822 E59.29352
G1 X69.405 Y99.814 E59.34394
G1 X69.406 Y98.114 E59.42875
G1 X69.444 Y97.387 E59.46507
G1 X69.501 Y96.844 E59.49231
G1 X69.619 Y96.105 E59.52964
G1 X69.81 Y95.399 E59.56613
G1 X69.984 Y94.867 E59.59406
G1 X70.263 Y94.15 E59.63244
